X: 10852
M: 2/4
L: 1/16
K: G
|:\
decd BcAB | GBAF GDB,D |\
decd BcAB | GBAF G2G2 H:|\
.D.F.A.F .A.c.A.F | .E.G.B.G .B.d.B.G |
.D.G.B.d .g.f.e.d | .c.B.A.G .G.F.E.D |\
.D.F.A.F .A.c.A.F | .E.G.B.G .B.d.B.G |\
K: Gm
d2d2b3d | c2c2a3c |\
d2d2b3d | c2c2 {c}a3c |\


